X: 1
T:The Glen Cottage Number One
S:Irish Traditional    Arranged by John Layton 14/2/01
R:Polka
O:Ireland
M:2/4
L:1/16
K:G
G2E2 E2D2|B,2E2 E2F2|G2FG E2D2|G2A2 BcBA|G2E2 E2D2|B,2E2 E2F2|
B2cB A2F2|1 E4 B3A:|2 E4 e3d|:B2e2 e2f2|e2B2 B2A2|B2e2 fed2|e4 e2f2|
g2ag f2gf|e2d2 B2A2|B2E2 EFGA|1 B3A B2A2:|2B4 B3A|
